svg/u2666.svg

<svg viewBox="0 0 128 128" xmlns="http://www.w3.org/2000/svg">
  <path d="M20.99,59.62c0,0-1.58,1.66-1.5,3.93c0.09,2.87,1.92,4.12,3.83,6.99 c1.92,2.87,34.64,49.1,36.06,50.58c1.63,1.7,2.28,3.07,4.7,3.02c2.4-0.04,3.64-1.71,4.5-2.76c0.86-1.05,36.85-51.51,39.05-54.67 c1.37-1.97,1.15-3.55,1.05-4.41c-0.1-0.86-1.53-2.68-1.53-2.68L20.99,59.62z" fill="#DB0A28"/>
  <path d="M20.93,59.68l43.21,58.38l43.01-58.44c0,0-37.07-51.96-38.03-53.43c-0.95-1.47-2.6-3.3-4.86-3.3 c-2.17,0-3.9,1.56-5.47,3.73C57.79,8.04,20.93,59.68,20.93,59.68z" fill="#FF222D"/>
</svg>

<svg viewBox="0 0 128 128" xmlns="http://www.w3.org/2000/svg">
  <defs/>
  <path d="M20.99,59.62 C20.99,59.62 19.41,61.28 19.49,63.55 C19.58,66.42 21.41,67.67 23.32,70.54 C25.24,73.41 57.96,119.64 59.38,121.12 C61.01,122.82 61.66,124.19 64.08,124.14 C66.48,124.1 67.72,122.43 68.58,121.38 C69.44,120.33 105.43,69.87 107.63,66.71 C109,64.74 108.78,63.16 108.68,62.3 C108.58,61.44 107.15,59.62 107.15,59.62 L20.99,59.62 Z" fill="#DB0A28"/>
  <path d="M20.93,59.68 L64.14,118.06 L107.15,59.62 C107.15,59.62 70.08,7.66 69.12,6.19 C68.17,4.72 66.52,2.89 64.26,2.89 C62.09,2.89 60.36,4.45 58.79,6.62 C57.79,8.04 20.93,59.68 20.93,59.68 Z" fill="#FF222D"/>
</svg>
